vendor/shopware/storefront/Resources/app/storefront/dist/assets/icon/default/drag-horizontal.svg

<svg xmlns="http://www.w3.org/2000/svg" width="24" height="24" viewBox="0 0 24 24">
  <path fill="#758CA3" fill-rule="evenodd" d="M8,6 C6.8954305,6 6,5.1045695 6,4 C6,2.8954305 6.8954305,2 8,2 C9.1045695,2 10,2.8954305 10,4 C10,5.1045695 9.1045695,6 8,6 Z M8,14 C6.8954305,14 6,13.1045695 6,12 C6,10.8954305 6.8954305,10 8,10 C9.1045695,10 10,10.8954305 10,12 C10,13.1045695 9.1045695,14 8,14 Z M16,6 C14.8954305,6 14,5.1045695 14,4 C14,2.8954305 14.8954305,2 16,2 C17.1045695,2 18,2.8954305 18,4 C18,5.1045695 17.1045695,6 16,6 Z M16,14 C14.8954305,14 14,13.1045695 14,12 C14,10.8954305 14.8954305,10 16,10 C17.1045695,10 18,10.8954305 18,12 C18,13.1045695 17.1045695,14 16,14 Z M8,22 C6.8954305,22 6,21.1045695 6,20 C6,18.8954305 6.8954305,18 8,18 C9.1045695,18 10,18.8954305 10,20 C10,21.1045695 9.1045695,22 8,22 Z M16,22 C14.8954305,22 14,21.1045695 14,20 C14,18.8954305 14.8954305,18 16,18 C17.1045695,18 18,18.8954305 18,20 C18,21.1045695 17.1045695,22 16,22 Z"/>
</svg>

<svg xmlns="http://www.w3.org/2000/svg" width="24" height="24" viewBox="0 0 24 24"><path fill="#758CA3" fill-rule="evenodd" d="M8 6c-1.1046 0-2-.8954-2-2s.8954-2 2-2 2 .8954 2 2-.8954 2-2 2zm0 8c-1.1046 0-2-.8954-2-2s.8954-2 2-2 2 .8954 2 2-.8954 2-2 2zm8-8c-1.1046 0-2-.8954-2-2s.8954-2 2-2 2 .8954 2 2-.8954 2-2 2zm0 8c-1.1046 0-2-.8954-2-2s.8954-2 2-2 2 .8954 2 2-.8954 2-2 2zm-8 8c-1.1046 0-2-.8954-2-2s.8954-2 2-2 2 .8954 2 2-.8954 2-2 2zm8 0c-1.1046 0-2-.8954-2-2s.8954-2 2-2 2 .8954 2 2-.8954 2-2 2z"/></svg>
